X: 34193
T: Reel Of Rio, The
R: reel
M: 4/4
K: Gmajor
|:BGGG AEGE|DEGA BAAA|BGGG AEGE|DEGA BGGG:|
Bded gded|Bdgd BAAA|Bded gded|BdAc BGGG|
Bded gded|Bdgd BAAA|Bded g3d|BdAc BGGG||

